X: 34944
T: Rocky Path, The
R: reel
M: 4/4
K: Amajor
|:A2 cA eafe|cAce B2 Bc|ecea fecA|BAFD CDEC|
AceA ceac|cdcA edef|abaf edfa|bagb A2 A2:|
|:cdcA BcBG|FGFD C2 CD|E2 FA Bdeg|fgfd cdcA|
abac' bafe|dbgb a3 b|afea fecA|BAce a4:|

